X: 11389
T: Early Morning
R: jig
M: 6/8
K: Eminor
"Em"Bee cee|~a3 gfe|Bee cee|agf edc|
Bee cee|~a3 gfe|gfe dBf|1 dBf feA:|2 dBf g2a||
"G"|:b2d ded|cea fga|bdd ded|cdf gfd|
b2d ded|cea fga|gfe dBf|1 dBf g2a:|2 agf edc||

